content/blogs/regnskap/hva-er-moms-mva/mva-fremtid.svg

<svg xmlns="http://www.w3.org/2000/svg" viewBox="0 0 800 600"><defs><linearGradient id="a" x1="0%" x2="100%" y1="0%" y2="0%"><stop offset="0%" style="stop-color:#7c3aed;stop-opacity:1"/><stop offset="100%" style="stop-color:#6d28d9;stop-opacity:1"/></linearGradient><linearGradient id="b" x1="0%" x2="0%" y1="0%" y2="100%"><stop offset="0%" style="stop-color:#ddd6fe;stop-opacity:1"/><stop offset="100%" style="stop-color:#c4b5fd;stop-opacity:1"/></linearGradient><linearGradient id="c" x1="0%" x2="0%" y1="0%" y2="100%"><stop offset="0%" style="stop-color:#ecfdf5;stop-opacity:1"/><stop offset="100%" style="stop-color:#d1fae5;stop-opacity:1"/></linearGradient><linearGradient id="d" x1="0%" x2="0%" y1="0%" y2="100%"><stop offset="0%" style="stop-color:#fef3c7;stop-opacity:1"/><stop offset="100%" style="stop-color:#fde68a;stop-opacity:1"/></linearGradient><linearGradient id="e" x1="0%" x2="0%" y1="0%" y2="100%"><stop offset="0%" style="stop-color:#e0f2fe;stop-opacity:1"/><stop offset="100%" style="stop-color:#bae6fd;stop-opacity:1"/></linearGradient></defs><path fill="#faf5ff" d="M0 0h800v600H0z"/><rect width="700" height="50" x="50" y="20" fill="url(#a)" rx="8"/><text x="400" y="50" fill="#fff" font-family="Arial, sans-serif" font-size="22" font-weight="bold" text-anchor="middle">Fremtidige Utviklingstrekk for MVA</text><circle cx="400" cy="90" r="25" fill="#7c3aed" stroke="#6d28d9" stroke-width="2"/><path fill="#fff" d="M385 90q15-15 30 0-15 15-30 0"/><circle cx="400" cy="90" r="8" fill="#7c3aed"/><path fill="none" stroke="#fff" stroke-linecap="round" stroke-width="2" d="M400 82v8l5 5"/><rect width="700" height="140" x="50" y="130" fill="#fff" stroke="#64748b" stroke-width="2" rx="10"/><text x="400" y="155" fill="#1e293b" font-family="Arial, sans-serif" font-size="18" font-weight="bold" text-anchor="middle">Planlagte Regelverksendringer</text><rect width="200" height="80" x="80" y="170" fill="url(#b)" stroke="#7c3aed" stroke-width="2" rx="8"/><text x="180" y="190" fill="#5b21b6" font-family="Arial, sans-serif" font-size="12" font-weight="bold" text-anchor="middle">DIGITALE TJENESTER</text><text x="90" y="210" fill="#6d28d9" font-family="Arial, sans-serif" font-size="10">• Utvidet avgiftsplikt</text><text x="90" y="225" fill="#6d28d9" font-family="Arial, sans-serif" font-size="10">• Nye registreringskrav</text><text x="90" y="240" fill="#6d28d9" font-family="Arial, sans-serif" font-size="10">• Harmonisering med EU</text><rect width="200" height="80" x="300" y="170" fill="url(#c)" stroke="#10b981" stroke-width="2" rx="8"/><text x="400" y="190" fill="#065f46" font-family="Arial, sans-serif" font-size="12" font-weight="bold" text-anchor="middle">MILJØAVGIFTER</text><text x="310" y="210" fill="#047857" font-family="Arial, sans-serif" font-size="10">• Grønn omstilling</text><text x="310" y="225" fill="#047857" font-family="Arial, sans-serif" font-size="10">• Karbonprising</text><text x="310" y="240" fill="#047857" font-family="Arial, sans-serif" font-size="10">• Sirkulærøkonomi</text><rect width="200" height="80" x="520" y="170" fill="url(#d)" stroke="#f59e0b" stroke-width="2" rx="8"/><text x="620" y="190" fill="#92400e" font-family="Arial, sans-serif" font-size="12" font-weight="bold" text-anchor="middle">PLATTFORMØKONOMI</text><text x="530" y="210" fill="#a16207" font-family="Arial, sans-serif" font-size="10">• Nye forretningsmodeller</text><text x="530" y="225" fill="#a16207" font-family="Arial, sans-serif" font-size="10">• Delingsøkonomi</text><text x="530" y="240" fill="#a16207" font-family="Arial, sans-serif" font-size="10">• Plattformselskaper</text><rect width="700" height="180" x="50" y="290" fill="#fff" stroke="#64748b" stroke-width="2" rx="10"/><text x="400" y="315" fill="#1e293b" font-family="Arial, sans-serif" font-size="18" font-weight="bold" text-anchor="middle">Teknologisk Utvikling</text><rect width="160" height="120" x="80" y="330" fill="url(#d)" stroke="#f59e0b" stroke-width="2" rx="8"/><text x="160" y="350" fill="#92400e" font-family="Arial, sans-serif" font-size="12" font-weight="bold" text-anchor="middle">KUNSTIG</text><text x="160" y="365" fill="#92400e" font-family="Arial, sans-serif" font-size="12" font-weight="bold" text-anchor="middle">INTELLIGENS</text><ellipse cx="160" cy="385" fill="#f59e0b" stroke="#d97706" rx="15" ry="10"/><circle cx="155" cy="382" r="2" fill="#fff"/><circle cx="165" cy="382" r="2" fill="#fff"/><path fill="none" stroke="#fff" stroke-width="2" d="M150 390q10 5 20 0"/><text x="90" y="410" fill="#a16207" font-family="Arial, sans-serif" font-size="10">• Automatisk klassifisering</text><text x="90" y="425" fill="#a16207" font-family="Arial, sans-serif" font-size="10">• Intelligent prosessering</text><text x="90" y="440" fill="#a16207" font-family="Arial, sans-serif" font-size="10">• Prediktiv analyse</text><rect width="160" height="120" x="260" y="330" fill="url(#b)" stroke="#7c3aed" stroke-width="2" rx="8"/><text x="340" y="350" fill="#5b21b6" font-family="Arial, sans-serif" font-size="12" font-weight="bold" text-anchor="middle">INTERNET OF</text><text x="340" y="365" fill="#5b21b6" font-family="Arial, sans-serif" font-size="12" font-weight="bold" text-anchor="middle">THINGS</text><circle cx="330" cy="385" r="3" fill="#7c3aed"/><circle cx="340" cy="380" r="3" fill="#7c3aed"/><circle cx="350" cy="385" r="3" fill="#7c3aed"/><circle cx="340" cy="390" r="3" fill="#7c3aed"/><path stroke="#7c3aed" d="m330 385 10-5M340 380l10 5M350 385l-10 5M340 390l-10-5"/><text x="270" y="410" fill="#6d28d9" font-family="Arial, sans-serif" font-size="10">• Sanntidsdata</text><text x="270" y="425" fill="#6d28d9" font-family="Arial, sans-serif" font-size="10">• Automatisk registrering</text><text x="270" y="440" fill="#6d28d9" font-family="Arial, sans-serif" font-size="10">• Sensornett</text><rect width="160" height="120" x="440" y="330" fill="url(#e)" stroke="#0284c7" stroke-width="2" rx="8"/><text x="520" y="350" fill="#0c4a6e" font-family="Arial, sans-serif" font-size="12" font-weight="bold" text-anchor="middle">KRYPTOVALUTA</text><circle cx="520" cy="385" r="12" fill="#0284c7" stroke="#0369a1"/><text x="520" y="390" fill="#fff" font-family="Arial, sans-serif" font-size="10" font-weight="bold" text-anchor="middle">₿</text><text x="450" y="410" fill="#075985" font-family="Arial, sans-serif" font-size="10">• Nye regler nødvendig</text><text x="450" y="425" fill="#075985" font-family="Arial, sans-serif" font-size="10">• Digital valuta</text><text x="450" y="440" fill="#075985" font-family="Arial, sans-serif" font-size="10">• Blockchain-teknologi</text><rect width="160" height="120" x="620" y="330" fill="url(#c)" stroke="#10b981" stroke-width="2" rx="8"/><text x="700" y="350" fill="#065f46" font-family="Arial, sans-serif" font-size="12" font-weight="bold" text-anchor="middle">AUTOMATISERTE</text><text x="700" y="365" fill="#065f46" font-family="Arial, sans-serif" font-size="12" font-weight="bold" text-anchor="middle">TRANSAKSJONER</text><rect width="20" height="25" x="690" y="375" fill="#10b981" stroke="#059669" rx="3"/><circle cx="695" cy="382" r="2" fill="#fff"/><circle cx="705" cy="382" r="2" fill="#fff"/><rect width="6" height="3" x="697" y="388" fill="#fff" rx="1"/><rect width="8" height="3" x="685" y="405" fill="#10b981" rx="1"/><rect width="8" height="3" x="707" y="405" fill="#10b981" rx="1"/><text x="630" y="410" fill="#047857" font-family="Arial, sans-serif" font-size="10">• Smart contracts</text><text x="630" y="425" fill="#047857" font-family="Arial, sans-serif" font-size="10">• Automatisk oppgjør</text><text x="630" y="440" fill="#047857" font-family="Arial, sans-serif" font-size="10">• Nye utfordringer</text><rect width="700" height="90" x="50" y="490" fill="#fff" stroke="#64748b" stroke-width="2" rx="10"/><text x="400" y="515" fill="#1e293b" font-family="Arial, sans-serif" font-size="16" font-weight="bold" text-anchor="middle">Påvirkning og Tidslinje</text><path stroke="#64748b" stroke-width="3" d="M100 540h600"/><circle cx="200" cy="540" r="6" fill="#f59e0b"/><text x="200" y="530" fill="#92400e" font-family="Arial, sans-serif" font-size="10" font-weight="bold" text-anchor="middle">2024-2025</text><text x="200" y="560" fill="#a16207" font-family="Arial, sans-serif" font-size="9" text-anchor="middle">Digitale tjenester</text><circle cx="350" cy="540" r="6" fill="#10b981"/><text x="350" y="530" fill="#065f46" font-family="Arial, sans-serif" font-size="10" font-weight="bold" text-anchor="middle">2025-2027</text><text x="350" y="560" fill="#047857" font-family="Arial, sans-serif" font-size="9" text-anchor="middle">Miljøavgifter</text><circle cx="500" cy="540" r="6" fill="#7c3aed"/><text x="500" y="530" fill="#5b21b6" font-family="Arial, sans-serif" font-size="10" font-weight="bold" text-anchor="middle">2027-2030</text><text x="500" y="560" fill="#6d28d9" font-family="Arial, sans-serif" font-size="9" text-anchor="middle">AI og automatisering</text><circle cx="650" cy="540" r="6" fill="#0284c7"/><text x="650" y="530" fill="#0c4a6e" font-family="Arial, sans-serif" font-size="10" font-weight="bold" text-anchor="middle">2030+</text><text x="650" y="560" fill="#075985" font-family="Arial, sans-serif" font-size="9" text-anchor="middle">Full digitalisering</text><rect width="700" height="5" x="50" y="590" fill="#f0f9ff" rx="2"/><path fill="none" stroke="#64748b" stroke-linecap="round" stroke-width="2" d="M240 200h20l-5-5m5 5-5 5M460 200h20l-5-5m5 5-5 5"/><circle cx="70" cy="140" r="8" fill="#7c3aed"/><text x="70" y="145" fill="#fff" font-family="Arial, sans-serif" font-size="10" font-weight="bold" text-anchor="middle">!</text><circle cx="70" cy="300" r="8" fill="#f59e0b"/><path fill="none" stroke="#fff" stroke-linecap="round" stroke-width="2" d="m66 300 3 3 5-6"/></svg>

<svg viewBox="0 0 800 600" xmlns="http://www.w3.org/2000/svg">
  <defs>
    <linearGradient id="headerGrad" x1="0%" y1="0%" x2="100%" y2="0%">
      <stop offset="0%" style="stop-color:#7c3aed;stop-opacity:1" />
      <stop offset="100%" style="stop-color:#6d28d9;stop-opacity:1" />
    </linearGradient>
    <linearGradient id="digitalGrad" x1="0%" y1="0%" x2="0%" y2="100%">
      <stop offset="0%" style="stop-color:#ddd6fe;stop-opacity:1" />
      <stop offset="100%" style="stop-color:#c4b5fd;stop-opacity:1" />
    </linearGradient>
    <linearGradient id="greenGrad" x1="0%" y1="0%" x2="0%" y2="100%">
      <stop offset="0%" style="stop-color:#ecfdf5;stop-opacity:1" />
      <stop offset="100%" style="stop-color:#d1fae5;stop-opacity:1" />
    </linearGradient>
    <linearGradient id="techGrad" x1="0%" y1="0%" x2="0%" y2="100%">
      <stop offset="0%" style="stop-color:#fef3c7;stop-opacity:1" />
      <stop offset="100%" style="stop-color:#fde68a;stop-opacity:1" />
    </linearGradient>
    <linearGradient id="futureGrad" x1="0%" y1="0%" x2="0%" y2="100%">
      <stop offset="0%" style="stop-color:#e0f2fe;stop-opacity:1" />
      <stop offset="100%" style="stop-color:#bae6fd;stop-opacity:1" />
    </linearGradient>
  </defs>
  

  <rect width="800" height="600" fill="#faf5ff"/>
  

  <rect x="50" y="20" width="700" height="50" rx="8" fill="url(#headerGrad)"/>
  <text x="400" y="50" text-anchor="middle" fill="white" font-family="Arial, sans-serif" font-size="22" font-weight="bold">Fremtidige Utviklingstrekk for MVA</text>
  

  <circle cx="400" cy="90" r="25" fill="#7c3aed" stroke="#6d28d9" stroke-width="2"/>
  <path d="M385 90 Q400 75 415 90 Q400 105 385 90" fill="white"/>
  <circle cx="400" cy="90" r="8" fill="#7c3aed"/>
  <path d="M400 82 L400 90 L405 95" stroke="white" stroke-width="2" fill="none" stroke-linecap="round"/>
  

  <rect x="50" y="130" width="700" height="140" rx="10" fill="white" stroke="#64748b" stroke-width="2"/>
  <text x="400" y="155" text-anchor="middle" fill="#1e293b" font-family="Arial, sans-serif" font-size="18" font-weight="bold">Planlagte Regelverksendringer</text>
  

  <rect x="80" y="170" width="200" height="80" rx="8" fill="url(#digitalGrad)" stroke="#7c3aed" stroke-width="2"/>
  <text x="180" y="190" text-anchor="middle" fill="#5b21b6" font-family="Arial, sans-serif" font-size="12" font-weight="bold">DIGITALE TJENESTER</text>
  <text x="90" y="210" fill="#6d28d9" font-family="Arial, sans-serif" font-size="10">• Utvidet avgiftsplikt</text>
  <text x="90" y="225" fill="#6d28d9" font-family="Arial, sans-serif" font-size="10">• Nye registreringskrav</text>
  <text x="90" y="240" fill="#6d28d9" font-family="Arial, sans-serif" font-size="10">• Harmonisering med EU</text>
  

  <rect x="300" y="170" width="200" height="80" rx="8" fill="url(#greenGrad)" stroke="#10b981" stroke-width="2"/>
  <text x="400" y="190" text-anchor="middle" fill="#065f46" font-family="Arial, sans-serif" font-size="12" font-weight="bold">MILJØAVGIFTER</text>
  <text x="310" y="210" fill="#047857" font-family="Arial, sans-serif" font-size="10">• Grønn omstilling</text>
  <text x="310" y="225" fill="#047857" font-family="Arial, sans-serif" font-size="10">• Karbonprising</text>
  <text x="310" y="240" fill="#047857" font-family="Arial, sans-serif" font-size="10">• Sirkulærøkonomi</text>
  

  <rect x="520" y="170" width="200" height="80" rx="8" fill="url(#techGrad)" stroke="#f59e0b" stroke-width="2"/>
  <text x="620" y="190" text-anchor="middle" fill="#92400e" font-family="Arial, sans-serif" font-size="12" font-weight="bold">PLATTFORMØKONOMI</text>
  <text x="530" y="210" fill="#a16207" font-family="Arial, sans-serif" font-size="10">• Nye forretningsmodeller</text>
  <text x="530" y="225" fill="#a16207" font-family="Arial, sans-serif" font-size="10">• Delingsøkonomi</text>
  <text x="530" y="240" fill="#a16207" font-family="Arial, sans-serif" font-size="10">• Plattformselskaper</text>
  

  <rect x="50" y="290" width="700" height="180" rx="10" fill="white" stroke="#64748b" stroke-width="2"/>
  <text x="400" y="315" text-anchor="middle" fill="#1e293b" font-family="Arial, sans-serif" font-size="18" font-weight="bold">Teknologisk Utvikling</text>
  

  <rect x="80" y="330" width="160" height="120" rx="8" fill="url(#techGrad)" stroke="#f59e0b" stroke-width="2"/>
  <text x="160" y="350" text-anchor="middle" fill="#92400e" font-family="Arial, sans-serif" font-size="12" font-weight="bold">KUNSTIG</text>
  <text x="160" y="365" text-anchor="middle" fill="#92400e" font-family="Arial, sans-serif" font-size="12" font-weight="bold">INTELLIGENS</text>
  

  <ellipse cx="160" cy="385" rx="15" ry="10" fill="#f59e0b" stroke="#d97706" stroke-width="1"/>
  <circle cx="155" cy="382" r="2" fill="white"/>
  <circle cx="165" cy="382" r="2" fill="white"/>
  <path d="M150 390 Q160 395 170 390" stroke="white" stroke-width="2" fill="none"/>
  
  <text x="90" y="410" fill="#a16207" font-family="Arial, sans-serif" font-size="10">• Automatisk klassifisering</text>
  <text x="90" y="425" fill="#a16207" font-family="Arial, sans-serif" font-size="10">• Intelligent prosessering</text>
  <text x="90" y="440" fill="#a16207" font-family="Arial, sans-serif" font-size="10">• Prediktiv analyse</text>
  

  <rect x="260" y="330" width="160" height="120" rx="8" fill="url(#digitalGrad)" stroke="#7c3aed" stroke-width="2"/>
  <text x="340" y="350" text-anchor="middle" fill="#5b21b6" font-family="Arial, sans-serif" font-size="12" font-weight="bold">INTERNET OF</text>
  <text x="340" y="365" text-anchor="middle" fill="#5b21b6" font-family="Arial, sans-serif" font-size="12" font-weight="bold">THINGS</text>
  

  <circle cx="330" cy="385" r="3" fill="#7c3aed"/>
  <circle cx="340" cy="380" r="3" fill="#7c3aed"/>
  <circle cx="350" cy="385" r="3" fill="#7c3aed"/>
  <circle cx="340" cy="390" r="3" fill="#7c3aed"/>
  <line x1="330" y1="385" x2="340" y2="380" stroke="#7c3aed" stroke-width="1"/>
  <line x1="340" y1="380" x2="350" y2="385" stroke="#7c3aed" stroke-width="1"/>
  <line x1="350" y1="385" x2="340" y2="390" stroke="#7c3aed" stroke-width="1"/>
  <line x1="340" y1="390" x2="330" y2="385" stroke="#7c3aed" stroke-width="1"/>
  
  <text x="270" y="410" fill="#6d28d9" font-family="Arial, sans-serif" font-size="10">• Sanntidsdata</text>
  <text x="270" y="425" fill="#6d28d9" font-family="Arial, sans-serif" font-size="10">• Automatisk registrering</text>
  <text x="270" y="440" fill="#6d28d9" font-family="Arial, sans-serif" font-size="10">• Sensornett</text>
  

  <rect x="440" y="330" width="160" height="120" rx="8" fill="url(#futureGrad)" stroke="#0284c7" stroke-width="2"/>
  <text x="520" y="350" text-anchor="middle" fill="#0c4a6e" font-family="Arial, sans-serif" font-size="12" font-weight="bold">KRYPTOVALUTA</text>
  

  <circle cx="520" cy="385" r="12" fill="#0284c7" stroke="#0369a1" stroke-width="1"/>
  <text x="520" y="390" text-anchor="middle" fill="white" font-family="Arial, sans-serif" font-size="10" font-weight="bold">₿</text>
  
  <text x="450" y="410" fill="#075985" font-family="Arial, sans-serif" font-size="10">• Nye regler nødvendig</text>
  <text x="450" y="425" fill="#075985" font-family="Arial, sans-serif" font-size="10">• Digital valuta</text>
  <text x="450" y="440" fill="#075985" font-family="Arial, sans-serif" font-size="10">• Blockchain-teknologi</text>
  

  <rect x="620" y="330" width="160" height="120" rx="8" fill="url(#greenGrad)" stroke="#10b981" stroke-width="2"/>
  <text x="700" y="350" text-anchor="middle" fill="#065f46" font-family="Arial, sans-serif" font-size="12" font-weight="bold">AUTOMATISERTE</text>
  <text x="700" y="365" text-anchor="middle" fill="#065f46" font-family="Arial, sans-serif" font-size="12" font-weight="bold">TRANSAKSJONER</text>
  

  <rect x="690" y="375" width="20" height="25" rx="3" fill="#10b981" stroke="#059669" stroke-width="1"/>
  <circle cx="695" cy="382" r="2" fill="white"/>
  <circle cx="705" cy="382" r="2" fill="white"/>
  <rect x="697" y="388" width="6" height="3" rx="1" fill="white"/>
  <rect x="685" y="405" width="8" height="3" rx="1" fill="#10b981"/>
  <rect x="707" y="405" width="8" height="3" rx="1" fill="#10b981"/>
  
  <text x="630" y="410" fill="#047857" font-family="Arial, sans-serif" font-size="10">• Smart contracts</text>
  <text x="630" y="425" fill="#047857" font-family="Arial, sans-serif" font-size="10">• Automatisk oppgjør</text>
  <text x="630" y="440" fill="#047857" font-family="Arial, sans-serif" font-size="10">• Nye utfordringer</text>
  

  <rect x="50" y="490" width="700" height="90" rx="10" fill="white" stroke="#64748b" stroke-width="2"/>
  <text x="400" y="515" text-anchor="middle" fill="#1e293b" font-family="Arial, sans-serif" font-size="16" font-weight="bold">Påvirkning og Tidslinje</text>
  

  <line x1="100" y1="540" x2="700" y2="540" stroke="#64748b" stroke-width="3"/>
  

  <circle cx="200" cy="540" r="6" fill="#f59e0b"/>
  <text x="200" y="530" text-anchor="middle" fill="#92400e" font-family="Arial, sans-serif" font-size="10" font-weight="bold">2024-2025</text>
  <text x="200" y="560" text-anchor="middle" fill="#a16207" font-family="Arial, sans-serif" font-size="9">Digitale tjenester</text>
  
  <circle cx="350" cy="540" r="6" fill="#10b981"/>
  <text x="350" y="530" text-anchor="middle" fill="#065f46" font-family="Arial, sans-serif" font-size="10" font-weight="bold">2025-2027</text>
  <text x="350" y="560" text-anchor="middle" fill="#047857" font-family="Arial, sans-serif" font-size="9">Miljøavgifter</text>
  
  <circle cx="500" cy="540" r="6" fill="#7c3aed"/>
  <text x="500" y="530" text-anchor="middle" fill="#5b21b6" font-family="Arial, sans-serif" font-size="10" font-weight="bold">2027-2030</text>
  <text x="500" y="560" text-anchor="middle" fill="#6d28d9" font-family="Arial, sans-serif" font-size="9">AI og automatisering</text>
  
  <circle cx="650" cy="540" r="6" fill="#0284c7"/>
  <text x="650" y="530" text-anchor="middle" fill="#0c4a6e" font-family="Arial, sans-serif" font-size="10" font-weight="bold">2030+</text>
  <text x="650" y="560" text-anchor="middle" fill="#075985" font-family="Arial, sans-serif" font-size="9">Full digitalisering</text>
  

  <rect x="50" y="590" width="700" height="5" rx="2" fill="#f0f9ff"/>
  

  <path d="M240 200 L260 200 L255 195 M260 200 L255 205" stroke="#64748b" stroke-width="2" fill="none" stroke-linecap="round"/>
  <path d="M460 200 L480 200 L475 195 M480 200 L475 205" stroke="#64748b" stroke-width="2" fill="none" stroke-linecap="round"/>
  

  <circle cx="70" cy="140" r="8" fill="#7c3aed"/>
  <text x="70" y="145" text-anchor="middle" fill="white" font-family="Arial, sans-serif" font-size="10" font-weight="bold">!</text>
  
  <circle cx="70" cy="300" r="8" fill="#f59e0b"/>
  <path d="M66 300 L69 303 L74 297" stroke="white" stroke-width="2" fill="none" stroke-linecap="round"/>
</svg>
